src/lib/packages/icons/src/assets/line/syringe.svg

<svg width="24" height="24" viewBox="0 0 24 24" fill="none" xmlns="http://www.w3.org/2000/svg">
<path d="M21.5301 6.69192L20.475 5.63699L17.308 2.47097C17.015 2.17797 16.54 2.17797 16.247 2.47097C15.954 2.76397 15.954 3.23901 16.247 3.53201L16.772 4.05691L14.667 6.16311L14.142 5.63796C14.142 5.63796 14.141 5.63799 14.141 5.63699L13.35 4.84597C13.057 4.55297 12.582 4.55297 12.289 4.84597C11.996 5.13897 11.996 5.61401 12.289 5.90701L12.5501 6.16799L6.46902 12.249C6.44102 12.277 6.42204 12.306 6.39504 12.334C6.38704 12.341 6.37704 12.3441 6.36904 12.3511C6.35304 12.3661 6.34801 12.3871 6.33401 12.4031C5.61501 13.1721 5.22404 13.9761 5.19704 14.7981C5.17304 15.5371 5.44205 16.2609 5.97805 16.9619L2.46902 20.471C2.17602 20.764 2.17602 21.239 2.46902 21.532C2.61502 21.678 2.80705 21.752 2.99905 21.752C3.19105 21.752 3.38308 21.679 3.52908 21.532L7.03701 18.0239C7.71401 18.542 8.41201 18.8091 9.11001 18.8091C10.005 18.8091 10.9001 18.383 11.7531 17.532L17.8321 11.451L18.094 11.7129C18.24 11.8589 18.432 11.9331 18.624 11.9331C18.816 11.9331 19.0081 11.8599 19.1541 11.7129C19.4471 11.4199 19.4471 10.9451 19.1541 10.6521L18.3621 9.86013L17.8371 9.33498L19.943 7.22903L20.468 7.75393C20.614 7.89993 20.8061 7.97414 20.9981 7.97414C21.1901 7.97414 21.382 7.90093 21.528 7.75393C21.823 7.45893 21.8231 6.98492 21.5301 6.69192ZM10.692 16.469C9.58504 17.577 8.63705 17.577 7.53005 16.469C6.96205 15.9 6.68102 15.354 6.69802 14.844C6.70702 14.577 6.80405 14.298 6.97305 14.013L7.97903 15.02C8.12503 15.166 8.31706 15.24 8.50906 15.24C8.70006 15.24 8.89296 15.167 9.03896 15.02C9.33196 14.728 9.33196 14.252 9.03896 13.959L7.95803 12.878L9.01199 11.824L10.088 12.8999C10.234 13.0459 10.4261 13.1201 10.6181 13.1201C10.8101 13.1201 11.002 13.0469 11.148 12.8999C11.441 12.6069 11.441 12.1321 11.148 11.8391L10.072 10.763L11.127 9.70803L12.208 10.7891C12.354 10.9351 12.5461 11.0091 12.7381 11.0091C12.9301 11.0091 13.122 10.9361 13.268 10.7891C13.561 10.4961 13.561 10.0211 13.268 9.72805L12.187 8.647L13.609 7.22512L16.244 9.86013C16.244 9.86013 16.244 9.86111 16.245 9.86111C16.246 9.86111 16.246 9.86108 16.246 9.86208L16.77 10.386L10.692 16.469ZM16.778 8.272L15.7281 7.22195L17.834 5.11599L18.885 6.16604L16.778 8.272Z" fill="currentColor"/>
</svg>

<svg xmlns="http://www.w3.org/2000/svg" width="24" height="24" fill="none"><path fill="currentColor" d="m21.53 6.692-1.055-1.055-3.167-3.166a.75.75 0 1 0-1.061 1.061l.525.525-2.105 2.106-.525-.525-.001-.001-.791-.791a.75.75 0 1 0-1.061 1.061l.261.261-6.081 6.081c-.028.028-.047.057-.074.085-.008.007-.018.01-.026.017-.016.015-.021.036-.035.052-.719.77-1.11 1.573-1.137 2.395-.024.74.245 1.463.781 2.164L2.469 20.47a.75.75 0 0 0 1.06 1.061l3.508-3.508c.677.518 1.375.785 2.073.785.895 0 1.79-.426 2.643-1.277l6.08-6.081.261.262a.748.748 0 0 0 1.06 0 .75.75 0 0 0 0-1.06l-.792-.793-.525-.525 2.106-2.106.525.525a.749.749 0 0 0 1.06 0 .75.75 0 0 0 .002-1.062Zm-10.838 9.777c-1.107 1.108-2.055 1.108-3.162 0-.568-.569-.849-1.115-.832-1.625.009-.267.106-.546.275-.831l1.006 1.007a.748.748 0 0 0 1.06 0 .75.75 0 0 0 0-1.061l-1.081-1.081 1.054-1.054 1.076 1.076a.749.749 0 1 0 1.06-1.06l-1.076-1.077 1.055-1.055 1.081 1.081a.748.748 0 0 0 1.06 0 .75.75 0 0 0 0-1.061l-1.081-1.081 1.422-1.422 2.635 2.635.001.001.001.001.524.524-6.078 6.083Zm6.086-8.197-1.05-1.05 2.106-2.106 1.051 1.05-2.107 2.106Z"/></svg>
